X:7
T:Sheet 7 — Sixths & Color
T:(6ths and 7th 3rd inversions, both voicing pairs)
M:4/4
L:1/4
K:Eb
%%score {1 2}
V:1 clef=treble name="RH"
V:2 clef=bass name="LH"
[V:1] "^①6"[EGBc] "^②m6"[FAcd] "^④6"[A,CEF] "^⑤6"[B,DFG] |
[V:2] "_1332"[E,G,B,C] "_2332"[F,A,CD] "_4332"[A,,C,E,F,] "_5332"[B,,D,F,G,] |
[V:1] "^①Δ ³"[G,B,DE] "^④Δ ³"[CEGA] "^⑤7 ³"[DFAB] "^④6 ¹"[E,A,CF] |
[V:2] "_3332"[G,,B,,D,E,] "_6332"[C,E,G,A,] "_7332"[D,F,A,B,] "_1434"[E,,A,,C,F,] |
[V:1] "^⑤6 ¹"[F,B,DG] "^①6 ¹"[Begc'] "^②m6 ¹"[cfad'] "^①Δ ³"[dgbe'] |
[V:2] "_2434"[F,,B,,D,G,] "_5434"[B,,E,G,C] "_6434"[C,F,A,D] "_7434"[D,G,B,E] |
[V:1] "^④Δ ³"[G,CEA] "^⑤7 ³"[Adfb] z z |
[V:2] "_3434"[G,,C,E,A,] "_4434"[A,,D,F,B,] z z |

